material/.icons/material/gate-nand.svg

<svg xmlns="http://www.w3.org/2000/svg" viewBox="0 0 24 24"><path d="M2 4v16h8c3.43 0 6.5-2.16 7.6-5.4.4.2.9.4 1.4.4a3 3 0 003-3 3 3 0 00-3-3c-.5 0-.97.15-1.4.4C16.5 6.16 13.43 4 10 4H2m2 2h6a6 6 0 016 6 6 6 0 01-6 6H4V6m15 5c.5 0 1 .5 1 1s-.5 1-1 1a1 1 0 01-1-1c0-.5.5-1 1-1z"/></svg>

<?xml version="1.0" encoding="UTF-8"?><!DOCTYPE svg PUBLIC "-//W3C//DTD SVG 1.1//EN" "http://www.w3.org/Graphics/SVG/1.1/DTD/svg11.dtd"><svg xmlns="http://www.w3.org/2000/svg" xmlns:xlink="http://www.w3.org/1999/xlink" version="1.1" id="mdi-gate-nand" width="24" height="24" viewBox="0 0 24 24"><path d="M2,4V20H10C13.43,20 16.5,17.84 17.6,14.6C18,14.8 18.5,15 19,15A3,3 0 0,0 22,12A3,3 0 0,0 19,9C18.5,9 18.03,9.15 17.6,9.4C16.5,6.16 13.43,4 10,4H2M4,6H10A6,6 0 0,1 16,12A6,6 0 0,1 10,18H4V6M19,11C19.5,11 20,11.5 20,12C20,12.5 19.5,13 19,13A1,1 0 0,1 18,12C18,11.5 18.5,11 19,11Z" /></svg>
